src/assets/icons/weeks,simple,53.svg

<svg width="48" height="48" viewBox="0 0 48 48" fill="none" xmlns="http://www.w3.org/2000/svg">
<rect opacity="0.2" x="5" y="5" width="38" height="38" rx="4" fill="black"/>
<path d="M5 13C5 9.22876 5 7.34315 6.17157 6.17157C7.34315 5 9.22876 5 13 5H35C38.7712 5 40.6569 5 41.8284 6.17157C43 7.34315 43 9.22876 43 13V15H5V13Z" fill="black"/>
<path d="M16.1452 38.2386C20.0316 38.2386 22.6737 35.7074 22.6651 32.179C22.6737 28.8381 20.3384 26.4347 17.1935 26.4347C15.6594 26.4347 14.3384 27.0739 13.7248 27.9347H13.6225L14.0742 23.5625H21.7021V20.5455H11.0316L10.2049 29.75L13.4862 30.3381C14.0231 29.6136 15.0629 29.1619 16.0941 29.1619C17.8498 29.1705 19.1112 30.4403 19.1112 32.2727C19.1112 34.0881 17.8754 35.3409 16.1452 35.3409C14.6793 35.3409 13.4947 34.4205 13.4094 33.0653H9.8299C9.89808 36.0824 12.5316 38.2386 16.1452 38.2386ZM31.6907 38.2386C35.6112 38.2386 38.4151 36.0824 38.4066 33.0994C38.4151 30.9261 37.0344 29.375 34.4691 29.0511V28.9148C36.4208 28.5653 37.7674 27.1847 37.7589 25.2244C37.7674 22.4716 35.3555 20.3068 31.7418 20.3068C28.1623 20.3068 25.4691 22.4034 25.418 25.4205H28.9549C28.9975 24.0909 30.2163 23.2301 31.7248 23.2301C33.2163 23.2301 34.2134 24.1335 34.2049 25.446C34.2134 26.8182 33.0458 27.7472 31.3668 27.7472H29.739V30.4574H31.3668C33.3441 30.4574 34.5799 31.446 34.5714 32.8523C34.5799 34.2415 33.3867 35.196 31.6992 35.196C30.0714 35.196 28.8526 34.3438 28.7844 33.0653H25.0685C25.1282 36.1165 27.8555 38.2386 31.6907 38.2386Z" fill="black"/>
</svg>

<svg xmlns="http://www.w3.org/2000/svg" width="48" height="48" fill="none" viewBox="0 0 48 48">
  <rect width="38" height="38" x="5" y="5" fill="#000" opacity=".2" rx="4"/>
  <path fill="#000" d="M5 13c0-3.771 0-5.657 1.172-6.828C7.343 5 9.229 5 13 5h22c3.771 0 5.657 0 6.828 1.172C43 7.343 43 9.229 43 13v2H5v-2zM16.145 38.239c3.887 0 6.529-2.532 6.52-6.06.009-3.34-2.327-5.744-5.471-5.744-1.535 0-2.856.639-3.47 1.5h-.101l.451-4.372h7.628v-3.017h-10.67l-.827 9.204 3.281.588c.537-.724 1.577-1.176 2.608-1.176 1.756.009 3.017 1.278 3.017 3.11 0 1.816-1.236 3.069-2.966 3.069-1.466 0-2.65-.92-2.736-2.276H9.83c.07 3.017 2.703 5.174 6.316 5.174zm15.546 0c3.92 0 6.724-2.157 6.716-5.14.008-2.173-1.373-3.724-3.938-4.048v-.136c1.952-.35 3.298-1.73 3.29-3.69.008-2.753-2.404-4.918-6.017-4.918-3.58 0-6.273 2.096-6.324 5.114h3.537c.043-1.33 1.261-2.19 2.77-2.19 1.491 0 2.488.902 2.48 2.215.008 1.372-1.16 2.301-2.838 2.301h-1.628v2.71h1.628c1.977 0 3.213.989 3.204 2.395.009 1.39-1.184 2.344-2.872 2.344-1.628 0-2.846-.852-2.915-2.13H25.07c.06 3.05 2.787 5.173 6.622 5.173z"/>
</svg>
